X: 27
T: Kerfunten
C:Hammy Hamilton
R:Jig
M:6/8
L:1/8
K:G Major
"G"BcB BAG|Bcd "Em"efg|"G"dBd gdB|"D"ABA AGA|
"G"B3 BAG|Bdd "Em"efg|"G"dBd gdB|"D"AGF "G"G3:|
|: "G"g3 gab|"Em"e3 edB|"G"g3 gab|bag "D"a3|
"G"g3 gab|"Em"e3 edB|"G"dBd gdB|"D"AGF "G"G3:|


